assets/sonr-icons/evmos-fill.svg

<svg xmlns="http://www.w3.org/2000/svg" width="24" height="24" fill="none"><path fill="currentColor" d="M12 22c5.523 0 10-4.477 10-10S17.523 2 12 2 2 6.477 2 12s4.477 10 10 10M6.975 11.157c.532-1.344 1.202-3.039 3.248-3.826a4.95 4.95 0 0 1 4.142.27.23.23 0 0 1 .061.358.23.23 0 0 1-.249.058 3.9 3.9 0 0 0-2.84-.009 3.94 3.94 0 0 0-2.524 3.703 47 47 0 0 1 2.661-1.115 45 45 0 0 1 2.899-1.009 37 37 0 0 1 1.407-.407l.278-.073c.53-.136 1.022-.245 1.466-.326 1.396-.256 2.317-.236 2.455.123s-.532.991-1.742 1.737q-.488.301-1.085.622a.177.177 0 0 1-.259-.127 5 5 0 0 0-.215-.819l-.014-.04-.031-.086-.001-.002a.15.15 0 0 0-.176-.091l-.056.014-.047.012q-.726.183-1.604.451a46 46 0 0 0-2.9 1.008A45 45 0 0 0 8.971 12.8a4 4 0 0 0 .223.584 3.932 3.932 0 0 0 7.062.07.23.23 0 0 1 .224-.124.23.23 0 0 1 .194.308 4.96 4.96 0 0 1-2.898 2.977c-2.046.787-3.677-.023-4.97-.666-.454-.226-.867-.431-1.241-.538-.679-.195-1.441-.146-2.086-.105-.739.047-1.327.085-1.461-.265s.327-.716.909-1.177c.508-.402 1.106-.877 1.481-1.476.206-.331.376-.76.563-1.232v.002z"/></svg>

<svg xmlns="http://www.w3.org/2000/svg" width="24" height="24" fill="none" viewBox="0 0 24 24"><path fill="#000" d="M12 22C17.523 22 22 17.523 22 12C22 6.477 17.523 2 12 2C6.477 2 2 6.477 2 12C2 17.523 6.477 22 12 22ZM6.975 11.157C7.507 9.813 8.177 8.118 10.223 7.331C11.632 6.79 13.135 6.934 14.365 7.601C14.497 7.673 14.528 7.849 14.426 7.959C14.362 8.028 14.263 8.051 14.177 8.017C13.296 7.672 12.289 7.642 11.337 8.008C9.764 8.613 8.803 10.119 8.813 11.711C9.634 11.336 10.53 10.959 11.474 10.596C12.483 10.207 13.461 9.869 14.373 9.587C14.863 9.435 15.334 9.299 15.78 9.18C15.874 9.155 15.967 9.13 16.058 9.107C16.588 8.971 17.08 8.862 17.524 8.781C18.92 8.525 19.841 8.545 19.979 8.904C20.117 9.263 19.447 9.895 18.237 10.641C17.912 10.841 17.549 11.05 17.152 11.263C17.045 11.321 16.913 11.256 16.893 11.136C16.846 10.862 16.774 10.588 16.678 10.317C16.673 10.303 16.669 10.291 16.664 10.277C16.654 10.249 16.644 10.219 16.633 10.191L16.632 10.189C16.605 10.119 16.53 10.079 16.456 10.098C16.437 10.103 16.419 10.108 16.4 10.112C16.384 10.116 16.368 10.12 16.353 10.124C15.869 10.246 15.334 10.396 14.749 10.575C13.885 10.841 12.915 11.174 11.849 11.583C10.762 12.001 9.803 12.412 8.971 12.8C9 12.9 9.033 12.999 9.07 13.097C9.107 13.195 9.15 13.291 9.194 13.384C9.356 13.724 9.562 14.032 9.801 14.302C10.858 15.492 12.578 15.967 14.151 15.363C15.104 14.997 15.832 14.3 16.256 13.454C16.298 13.371 16.387 13.322 16.48 13.33C16.63 13.344 16.724 13.496 16.674 13.638C16.205 14.959 15.185 16.073 13.776 16.615C11.73 17.402 10.099 16.592 8.806 15.949C8.352 15.723 7.939 15.518 7.565 15.411C6.886 15.216 6.124 15.265 5.479 15.306C4.74 15.353 4.152 15.391 4.018 15.041C3.884 14.691 4.345 14.325 4.927 13.864C5.435 13.462 6.033 12.987 6.408 12.388C6.614 12.057 6.784 11.628 6.971 11.156V11.158L6.975 11.157Z"/></svg>
